X:1
T:Andernach, LM
T:Andernach, LM
T:Andernach Gesangbuch, 1608
T:Public Domain Courtesy of the Cyber Hymnal™
C:Andernach Gesangbuch, 1608
Z:Public Domain
Z:Courtesy of the Cyber Hymnal™
%%score ( 1 2 ) ( 3 4 )
L:1/8
M:4/4
K:G
V:1 treble 
V:2 treble 
V:3 bass 
V:4 bass 
V:1
 [DG]4 [DG]2 [B,DG]2 | [CF]2 D2 E4 | F4 [B,DG]4 | [DGB]4 A4 | c4 [DA]2 [DGB]2 [DFA]2 | %5
 [DG]2 [DFA]2 [DGB]4- | [DGB]2 [EG]2 [FA]2 [EG]2 | [FA]2 [FB]2 [EG]2 [CEA]2 | [EG]4 [DGB]4 | %9
 d6 [Ac]2 | [GB]2 [EG]2 [GB]4 | [FA]4 [DG]4 |] %12
V:2
 x8 | x2 D2 D2 C2 | B,2 A,2 x4 | x4 D2 F2 | G2 x8 | x8 | x8 | x8 | x8 | A2 G2 F2 x2 | x4 D2 E2 | %11
 x8 |] %12
V:3
 ([G,,B,]2 [A,,A,]2) [B,,G,]2 [G,,D,]2 | [A,,F,]2 [B,,G,]2 [C,G,]4 | D2 C2 [G,,G,B,]4 | %3
 [G,B,]4 D4 | [E,C]2 [F,A,]2 G,2 [D,A,]2 x2 | [B,,B,]2 [D,A,]2 G,4- | G,2 [E,B,]2 [D,D]2 [E,B,]2 | %7
 [D,D]2 [B,,D]2 [E,B,]2 [A,,A,]2 | [E,B,]4 G,4 | D6 [A,,A,E]2 | [B,,D]2 [C,C]2 [B,,G,B,]4 | %11
 [D,A,D]4 [G,,G,B,]4 |] %12
V:4
 x8 | x8 | D,4 x4 | x4 F,2 D,2 | x4 G,2 x4 | x4 G,4- | G,2 x6 | x8 | x4 G,4 | F,2 E,2 D,2 x2 | x8 | %11
 x8 |] %12

